48x48/apps/phoronix-test-suite.svg

<svg height="48" width="48" xmlns="http://www.w3.org/2000/svg"><path d="m8 5c-2.216 0-4 1.784-4 4v32c0 2.216 1.784 4 4 4s4-1.784 4-4v-8h28c2.216 0 4-1.784 4-4v-20c0-2.216-1.784-4-4-4z" opacity=".2"/><path d="m8 4c-2.216 0-4 1.784-4 4v32c0 2.216 1.784 4 4 4s4-1.784 4-4v-8h28c2.216 0 4-1.784 4-4v-20c0-2.216-1.784-4-4-4z" fill="#7cb320"/><path d="m15.848 11c-2.132 0-3.848 1.686-3.848 3.781v2.219h-3l5 4 5-4h-3v-2h20v-.219c0-2.095-1.716-3.781-3.848-3.781zm18.152 6-5 4h3v2h-20v.219c0 2.095 1.716 3.781 3.848 3.781h16.304c2.132 0 3.848-1.686 3.848-3.781v-2.219h3z" opacity=".2"/><path d="m15.848 10c-2.132 0-3.848 1.686-3.848 3.781v2.219h-3l5 4 5-4h-3v-2h20v-.219c0-2.095-1.716-3.781-3.848-3.781zm18.152 6-5 4h3v2h-20v.219c0 2.095 1.716 3.781 3.848 3.781h16.304c2.132 0 3.848-1.686 3.848-3.781v-2.219h3z" fill="#f4f4f7"/><circle cx="24" cy="18" fill="#17191e" r="2"/><path d="m8 4c-2.216 0-4 1.784-4 4v1c0-2.216 1.784-4 4-4h32c2.216 0 4 1.784 4 4v-1c0-2.216-1.784-4-4-4z" fill="#f4f4f7" opacity=".2"/></svg>

<svg xmlns="http://www.w3.org/2000/svg" width="48" height="48" version="1"><path style="opacity:.2" d="M8 5C5.784 5 4 6.784 4 9v32c0 2.216 1.784 4 4 4s4-1.784 4-4v-8h28c2.216 0 4-1.784 4-4V9c0-2.216-1.784-4-4-4H8z"/><path style="fill:#7cb320" d="M8 4C5.784 4 4 5.784 4 8v32c0 2.216 1.784 4 4 4s4-1.784 4-4v-8h28c2.216 0 4-1.784 4-4V8c0-2.216-1.784-4-4-4H8z"/><path style="opacity:.2" d="M15.848 11C13.716 11 12 12.686 12 14.781V17H9l5 4 5-4h-3v-2h20v-.219C36 12.686 34.284 11 32.152 11zM34 17l-5 4h3v2H12v.219C12 25.314 13.716 27 15.848 27h16.304C34.284 27 36 25.314 36 23.219V21h3z"/><path style="fill:#f4f4f7" d="M15.848 10C13.716 10 12 11.686 12 13.781V16H9l5 4 5-4h-3v-2h20v-.219C36 11.686 34.284 10 32.152 10zM34 16l-5 4h3v2H12v.219C12 24.314 13.716 26 15.848 26h16.304C34.284 26 36 24.314 36 22.219V20h3z"/><circle style="fill:#17191e" cx="24" cy="18" r="2"/><path style="fill:#f4f4f7;opacity:.2" d="M8 4C5.784 4 4 5.784 4 8v1c0-2.216 1.784-4 4-4h32c2.216 0 4 1.784 4 4V8c0-2.216-1.784-4-4-4H8z"/></svg>
